!!!!SEGMENT: pl-wtm--r-456-m_moniuszko-stanislaw-polka-jawnuta.krn
!!!id: 18xx:1670
!!!COM: Moniuszko, Stanisław
!!!OTL: Polka Jawnuta
!!!PDT: 1852
!!!SMS-siglum: PL-Wtm
!!!SMS-shelfmark: R 456/M
!!!NIFC-rismID: 1001087174
!!!URL-scan: http://repozytorium.nifc.pl/skany/pl-wtm-nut--r456m
!!!ONB-nifc:
!!!SMS-variant:
!!!SMS-altvar:
**kern	**kern	**dynam
*part2	*part1	*part1
*staff2	*staff1	*
*I"[Piano]	*I"[Piano]	*
*I'[pf]	*I'[pf]	*
*clefF4	*clefG2	*
*k[f#c#]	*k[f#c#]	*
*M2/4	*M2/4	*
*>[A,B,A,C,C1,C,C2,D]	*>[A,B,A,C,C1,C,C2,D]	*
=1	=1	=1
*>A	*>A	*
!	!LO:TX:i:a:t=Polka.	!
!	!LO:TX:i:a:t=Allegretto	!LO:DY:b:t=ff.:rj
!	!LO:TX:a:t=P:problem: kolejność znaków: f#, cc# (dot. górnej pięciolinii)	!
8B'>L 8F#' 8BB'\	8bb'>L 8ff#' 8dd' 8b'\	ff
8B'> 8F#' 8D'\	8ff#'>J 8dd' 8b'\	.
8B'> 8F#' 8BB'\	8.bbL 8.ff# 8.dd 8.b\	.
8B'>J 8F#' 8D'\	.	.
.	16aa\Jk	.
=2	=2	=2
8BL 8E\	16gg\LL	.
.	32r	.
.	(>32ff#\K	.
8B 8G\	16ee\)	.
.	32r	.
.	(>32ff#\JJk	.
8B 8E\	16gg\LL)	.
.	32r	.
.	(>32aa\K	.
8AJ 8G\	16bb\)	.
.	32r	.
.	32ccc#X\JJk	.
=3	=3	=3
8dL 8A 8D\	8ddd'>L 8ff#' 8dd'\	.
8d 8A 8F#\	8aa'>J 8ff#' 8dd'\	.
8d 8A 8D\	8.ddd^^>L 8.ff# 8.dd\	.
8dJ 8A 8F#\	.	.
.	16ccc#X\Jk	.
!!LO:LB:g=original
=4	=4	=4
.	8qccc#/	.
8dL 8G\	16bb\LL	.
.	32r	.
.	(>32aa#X\K	.
8d 8B\	16bb\)	.
.	32r	.
.	32ccc#\JJk	.
.	8qeee/	.
8d 8G\	16ddd\LL	.
.	32r	.
.	(>32ccc#\K	.
8c#J 8B\	16ddd\)	.
.	32r	.
.	32eee\JJk	.
=5	=5	=5
8f#L 8A#X 8F#\	8fff#'>L 8aa#X' 8ff#'\	.
8f# 8c# 8A#\	8fff#'>J 8aa#' 8ff#'\	.
8f# 8c# 8F#\	8.ccc#L 8.ff#^^\	.
8f#J 8c# 8A#\	.	.
.	16eee\Jk	.
=6	=6	=6
8B\L	16ddd\LL	.
.	32r	.
.	32ccc#\K	.
8f# 8d\J	16bb\	.
.	32r	.
.	32ccc#\JJk	.
8G\L	16bb\LL	.
.	32r	.
.	32aa\K	.
8gJ 8d 8B\	16gg\	.
.	32r	.
.	32aa\JJk	.
!!LO:LB:g=original
=7	=7	=7
8E\L	16gg\LL	.
.	32r	.
.	32ff#\K	.
8g 8c# 8B\J	16ee\	.
.	32r	.
.	32gg\JJk	.
8F#\L	16ff#\LL	.
.	32r	.
.	32ee\K	.
8f#J 8c# 8A#X\	16dd\	.
.	32r	.
.	32cc#\JJk	.
=8	=8	=8
8B\L	16b\LL	.
.	32r	.
.	32f#\K	.
16.d\L	16b\	.
.	32r	.
32B\JJk	32dd\JJk	.
8F#\L	16ff#\LL	.
.	32r	.
.	32b\K	.
8D\J	16dd\	.
.	32r	.
.	32ff#\JJk	.
=9	=9	=9
8BL 8F# 8BB\	8bbL 8dd 8b\	.
8B 8F# 8D\	8bbJ 8ff# 8b\	.
8B 8F# 8BB\	8.ff#^^>L 8.b\	.
8BJ 8F# 8D\	.	.
.	16aa\Jk	.
!!LO:LB:g=original
=10	=10	=10
8BL 8E\	16gg\LL	.
.	32r	.
.	32ff#\K	.
8B 8G\	16ee\	.
.	32r	.
.	32ff#\JJk	.
8B 8E\	16gg\LL	.
.	32r	.
.	32aa\K	.
8AJ 8G\	16bb\	.
.	32r	.
.	32ccc#X\JJk	.
=11	=11	=11
8dL 8A 8D\	8dddL 8ff# 8dd\	.
8d 8A 8F#\	8dddJ 8aa 8dd\	.
8d 8A 8D\	8.aa^^>L 8.dd\	.
8dJ 8A 8F#\	.	.
.	16ccc#X\Jk	.
=12	=12	=12
.	8qccc#X/	.
8dL 8G\	16bb\LL	.
.	32r	.
.	32aa#X\K	.
8d 8B\	16bb\	.
.	32r	.
.	32ccc#X\JJk	.
.	8qeee/	.
8d 8G\	16ddd\LL	.
.	32r	.
.	32ccc#\K	.
8c#J 8B\	16ddd\	.
.	32r	.
.	32eee\JJk	.
!!LO:LB:g=original
=13	=13	=13
8f#L 8c# 8F#\	8fff#'>L 8aa#X' 8ff#'\	.
8f# 8c# 8A#X\	8fff#'>J 8ccc#' 8ff#'\	.
8f# 8c# 8F#\	8.ccc#^^>L 8.ff#\	.
8f#J 8c# 8A#\	.	.
.	16eee\Jk	.
=14	=14	=14
8f#L 8d 8B\	16ddd\LL	.
.	32r	.
.	32eee\K	.
8f# 8d 8B\	16ddd\	.
.	32r	.
.	32ccc#\JJk	.
8g 8d 8G\	16bb\LL	.
.	32r	.
.	32ccc#\K	.
8gJ 8d 8G\	16bb\	.
.	32r	.
.	32aa\JJk	.
=15	=15	=15
8E\L	16gg\LL	.
.	32r	.
!	!LO:N:vis=16	!
.	32aa\K	.
8gJ 8c# 8B\	16gg\	.
.	32r	.
!	!LO:N:vis=16	!
.	32ff#\JJk	.
8F#\L	16ee\LL	.
.	32r	.
.	32dd\K	.
8f#J 8c# 8A#X\	16cc#\	.
.	32r	.
.	32ff#\JJk	.
!!LO:LB:g=original
=16	=16	=16
8dL 8B\	16b\LL	.
.	32r	.
.	(>32dd\K	.
8f#'>J 8F#'\	16ff#\)	.
.	32r	.
.	(>32bb\JJk	.
!	!LO:TX:i:b:t=fine.	!
8B'> 8BB'\	8b\)	.
8r	8r	.
*clefG2	*kcancel	*
=17||	=17||	=17||
*>B	*>B	*
*k[f#]	*k[f#]	*
*^	*	*
*	*2\right	*	*
!	!	!LO:TX:a:t=P:problem:w źródle zamiast krzyżyka i kasownika są dwa kasowniki (dot. górnej pięciolinii)	!LO:DY:b:t=pp.
8r	2d^> 2G\	8r	pp
!	!	!LO:TX:i:b:t=scherzando.	!
.	.	(<8qeee/	.
8bL 8g 8d/	.	8ddd\L)	.
.	.	(<8qccc#X/	.
8b 8g 8d/	.	8ddd\J)	.
.	.	(<8qggg/	.
8bJ 8g 8d/	.	8bb^^>\)	.
=18	=18	=18	=18
8r	2d^> 2G\	8r	.
.	.	(<8qccc/	.
8bL 8g 8d/	.	8bb\L)	.
.	.	(<8qaa#X/	.
8b 8g 8d/	.	8bb\J)	.
.	.	(<8qddd/	.
8bJ 8g 8d/	.	8gg^^>\)	.
=19	=19	=19	=19
8r	2d^> 2G\	8r	.
.	.	(<8qbb/	.
8ccL 8f# 8d/	.	8aa\L)	.
.	.	(<8qgg/	.
8cc 8a 8d/	.	8ff#\J)	.
.	.	(<8qee/	.
8ccJ 8f# 8d/	.	8dd^^>\)	.
!!LO:PB:g=original
=20	=20	=20	=20
8r	2d^> 2G\	8r	.
*tremolo	*	*	*
.	.	(<8qaa/	.
8b 8g 8d/L	.	8gg\L)	.
.	.	(<8qff#/	.
8b 8g 8d/	.	8gg\)	.
.	.	(<8qbb/	.
8b 8g 8d/J	.	8ddd^^>\J)	.
=21	=21	=21	=21
8r	2e^> 2G\	8r	.
.	.	(<8qddd 8qff#/	.
8cc 8g 8e/L	.	8cccL 8ee\)	.
.	.	8qbb 8qdd#X/	.
8cc 8g 8e/	.	8cccJ 8ee\	.
.	.	(<8qddd/	.
8cc 8g 8e/J	.	8gg^^>\)	.
*Xtremolo	*	*	*
=22	=22	=22	=22
8r	2d 2G\	8r	.
.	.	(<8qaa/	.
8bL 8g 8d/	.	8gg\L)	.
.	.	(<8qff#/	.
8b 8g 8d/	.	8gg\)	.
.	.	(<8qbb/	.
8bJ 8g 8d/	.	8dd\J)	.
!!LO:LB:g=original
=23	=23	=23	=23
8d/L	4d 4G\	16.r	.
!	!	!LO:N:vis=16	!
.	.	(>32aa\	.
8ccJ 8f# 8d/	.	8dd^^>\)	.
8d/L	4d 4G\	16.r	.
!	!	!LO:N:vis=16	!
.	.	32ddd\	.
8ccJ 8f# 8d/	.	8dd\	.
=24	=24	=24	=24
8r	2d 2G\	16.r	.
!	!	!	!LO:DY:b:t=f.:rj
.	.	(<32e/KLL	f
8bL 8g'</	.	16d/)	.
.	.	32r	.
.	.	(<32c/JJk	.
8b 8g'</	.	16B/LL)	.
.	.	32r	.
.	.	32A/JK	.
8bJ 8g'</	.	8G^</J	.
=25	=25	=25	=25
!	!	!	!LO:DY:b:t=pp.
8r	2d 2G\	8r	pp
.	.	(<8qeee/	.
8bL 8g 8d/	.	8ddd\L)	.
.	.	8qccc#X/	.
8b 8g 8d/	.	8ddd\J	.
.	.	8qggg/	.
8bJ 8g 8d/	.	8bb^^>\	.
!!LO:LB:g=original
=26	=26	=26	=26
8r	2d^> 2G\	8r	.
.	.	(<8qccc/	.
*tremolo	*	*	*
8b 8g 8d/L	.	8bb\L)	.
.	.	(<8qaa#X/	.
8b 8g 8d/	.	8bb\)	.
.	.	(<8qddd/	.
8b 8g 8d/J	.	8gg\J)	.
=27	=27	=27	=27
8r	2d^> 2G\	16.r	.
.	.	(>32ddd\KLL	.
8cc 8f# 8d/L	.	16aa\)	.
.	.	32r	.
.	.	(>32gg\JJk	.
8cc 8f# 8d/	.	16ff#\LL)	.
.	.	32r	.
.	.	32ee\JK	.
8cc 8f# 8d/J	.	8dd^^>\J	.
=28	=28	=28	=28
8r	2d 2G\	16.r	.
.	.	(>32ggg\KLL	.
8b 8g 8d/L	.	16ddd\)	.
.	.	32r	.
.	.	(>32ccc\JJk	.
8b 8g 8d/	.	16bb\LL)	.
.	.	32r	.
.	.	32aa\JK	.
8b 8g 8d/J	.	8gg\J	.
=29	=29	=29	=29
8r	2g 2G\	16.r	.
.	.	32eee\KLL	.
8b-X 8e 8c#X/L	.	16gg\	.
.	.	32r	.
.	.	32aa\JJk	.
8b-X 8e 8c#X/	.	16.bb-X\LL	.
.	.	.	.
.	.	32aa\JK	.
8b-X 8e 8c#X/J	.	8gg\J	.
!!LO:LB:g=original
=30	=30	=30	=30
8r	2d^> 2G\	16.r	.
*	*	*8va	*
.	.	32bbb\KLL	.
8bn 8g 8d/L	.	16ggg\	.
.	.	32r	.
.	.	(>32eee\JJk	.
8bn 8g 8d/	.	16ddd\LL)	.
.	.	32r	.
.	.	32bb\JK	.
8bn 8g 8d/J	.	8gg^^>\J	.
*Xtremolo	*	*	*
*v	*v	*	*
=31	=31	=31
8d'<L 8D'/	16.r	.
.	(>32dddd\	.
8ccJ 8f# 8d/	8ddd^^>\)	.
8d'<L 8D'/	16.r	.
.	(>32ddd\	.
8cc'<J 8f#' 8d'/	8dd^^>/)	.
=32	=32	=32
8bL 8d 8G/	16ggg\LL	.
.	32r	.
.	32ddd\K	.
8b'<J 8g' 8d'/	16bb\	.
.	32r	.
.	32ddd\JJk	.
8g 8G^^>/	8gg^^>/	.
*	*X8va	*
!	!LO:TX:i:a:t=Polka DC. al fine\npoz Trio.	!
8r	8r	.
!!LO:LB:g=original
=33||	=33||	=33||
*>C	*>C	*
!LO:CL:ed	!	!
*clefF4	*	*
*M2/4	*M2/4	*
*	*^	*
!LO:TX:a:t=P:problem:mixedbeam	!LO:TX:i:a:t=Trio.	!	!
8CC/L	8aa/L	8r	p
!	!LO:TX:i:b:t=legier&colon;	!	!
8A\J 8E\ 8C\	8ee/J	8cc 8a\	.
!LO:TX:a:t=P:problem:mixedbeam	!	!	!
8CC/L	4aa/	8r	.
8A\J 8E\ 8C\	.	8ee 8cc 8a\	.
=34	=34	=34	=34
!LO:TX:a:t=P:problem:mixedbeam	!	!	!
8DD/L	8gg/L	8r	.
8B\J 8G\ 8D\	8dd/J	8b\	.
!LO:TX:a:t=P:problem:mixedbeam	!	!	!
8DD/L	4gg^^>/	8r	.
8B\J 8G\	.	8dd 8b 8g\	.
*	*v	*v	*
=35	=35	=35
*^	*	*
8dL 8F#/	2D\	(>16dd/LL	>
.	.	16ff#/	.
8e 8G/	.	16ee/	.
.	.	16cc/JJ	.
8e#X 8G#X/	.	16b/LL	.
.	.	16dd/	.
8f#J 8A/	.	16cc/	.
.	.	16a/JJ)	]
=36	=36	=36	=36
!LO:TX:a:t=P:problem:mixedbeam	!	!	!
8G/L	4G\	(>16g/LL	.
.	.	16b/	.
8g>\J 8d>\ 8B>\	.	16dd/	.
.	.	16gg/JJ)	.
8BB/L	4BB\	8bb'</L	.
8BJ 8G#X 8Fn 8D/	.	8bbJ 8gg#X 8ffn 8dd 8b/	.
*v	*v	*	*
!!LO:LB:g=original
=37	=37	=37
*	*^	*
8C\L	8aa/L	8r	.
8eJ 8A 8G\	8ee/J	8a 8g\	.
8C\L	4aa^^>/	8r	.
8e-XJ 8A 8G\	.	8ee-X 8a 8g\	.
=38	=38	=38	=38
8D\L	8gg/L	8r	.
8BJ 8G 8D\	8dd/J	8b 8g\	.
8D\L	4gg/	8r	.
8eJ 8B-X 8G\	.	8cc#X 8b-X 8g\	.
*	*v	*v	*
=39	=39	=39
8AL 8F# 8D\	(>16ff#\LL	>
.	16aa\	.
8AJ 8E 8AA\	16gg\	.
.	16ee\JJ	.
8D\L	16dd\LL	.
.	16ff#\	.
8dJ 8A 8F#\	16ee\	.
.	16cc\JJ	]
=40	=40	=40
*>C1	*>C1	*
!LO:TX:a:t=P:problem:mixedbeam	!LO:TX:a:i:t=1ma	!
8GG/L	16b\LL	.
.	16dd\	.
8dJ 8B 8G\	16gg\	.
.	16bb\JJ)	.
!LO:TX:a:t=P:problem:mixedbeam	!	!
8BB/L	8ddd\L	.
8dJ 8G\	8bb:J 8gg: 8dd:\	.
=41||	=41||	=41||
*>C2	*>C2	*
!LO:TX:i:b:t=seque Coda.	!LO:TX:a:i:t=2da	!
8B'>L 8G'\	16b\LL	.
.	16ee\	.
8d'>J 8B'\	16dd\	.
.	16b\JJ	.
8G\	8g/	.
!LO:TX:i:b:t=V. S.	!	!
8r	8r	.
!!LO:PB:g=original
=42||	=42||	=42||
*>D	*>D	*
*k[f#c#]	*k[f#c#]	*
!	!LO:TX:i:a:t=Coda.	!LO:DY:b:t=ff.:rj
8B'>L 8F#' 8BB'\	8bb'>L 8ff#' 8dd' 8b'\	ff
8B'> 8F#' 8D'\	8ff#'>J 8dd' 8b'\	.
8B'> 8F#' 8BB'\	8.bbL 8.ff# 8.dd 8.b\	.
8B'>J 8F#' 8D'\	.	.
.	16aa\Jk	.
=43	=43	=43
8BL 8E\	16gg\LL	.
.	32r	.
.	(>32ff#\K	.
8B 8G\	16ee\)	.
.	32r	.
.	(>32ff#\JJk	.
8B 8E\	16gg\LL)	.
.	32r	.
.	(>32aa\K	.
8AJ 8G\	16bb\)	.
.	32r	.
.	32ccc#X\JJk	.
=44	=44	=44
8dL 8A 8D\	8ddd'>L 8ff#' 8dd'\	.
8d 8A 8F#\	8aa'>J 8ff#' 8dd'\	.
8d 8A 8D\	8.dddL 8.ff# 8.dd\	.
8dJ 8A 8F#\	.	.
.	16ccc#X^^>\Jk	.
=45	=45	=45
.	8qccc#/	.
8dL 8G\	16bb\LL	.
.	32r	.
.	(>32aa#X\K	.
8d 8B\	16bb\)	.
.	32r	.
.	32ccc#\JJk	.
.	8qeee/	.
8d 8G\	16ddd\LL	.
.	32r	.
.	32ccc#\K	.
8c#J 8B\	16ddd\	.
.	32r	.
.	32eee\JJk	.
!!LO:LB:g=original
=46	=46	=46
8A#XL 8F#\	8fff#L 8aa#X 8ff#\	.
8f# 8c# 8A#\	8fff#J 8ccc# 8ff#\	.
8f# 8c# 8F#\	8.ccc#^^>L 8.ff#\	.
8f#J 8c# 8A#\	.	.
.	16eee\Jk	.
=47	=47	=47
8B\L	16ddd\LL	.
.	32r	.
.	32ccc#\K	.
8f#J 8d\	16bb\	.
.	32r	.
.	32ccc#\JJk	.
8G\L	16bb\LL	.
.	32r	.
.	32aa\K	.
8gJ 8d 8B\	16gg\	.
.	32r	.
.	32aa\JJk	.
=48	=48	=48
8E\L	16gg\LL	.
.	32r	.
.	32ff#\K	.
8gJ 8e 8c# 8B\	16ee\	.
.	32r	.
.	32gg\JJk	.
8F#\L	16ff#\LL	.
.	32r	.
.	32ee\K	.
8f#J 8c# 8A#X\	16dd\	.
.	32r	.
.	32cc#\JJk	.
=49	=49	=49
8B\L	16b\LL	.
.	32r	.
.	32f#\K	.
16.d\L	16b\	.
.	32r	.
32B\JJk	32dd\JJk	.
8F#\L	16ff#\LL	.
.	32r	.
.	32b\K	.
8D\J	16dd\	.
.	32r	.
.	32ff#\JJk	.
!!LO:LB:g=original
=50	=50	=50
8BL 8F# 8BB\	8bbL 8dd 8b\	.
8B 8F# 8D\	8bbJ 8ff# 8b\	.
8B 8F# 8BB\	8.ff#^^>L 8.b\	.
8BJ 8F# 8D\	.	.
.	16aa\Jk	.
=51	=51	=51
8BL 8E\	16gg\LL	.
.	32r	.
.	32ff#\K	.
8B 8G\	16ee\	.
.	32r	.
.	32ff#\JJk	.
8B 8E\	16gg\LL	.
.	32r	.
.	32aa\K	.
8AJ 8G\	16bb\	.
.	32r	.
.	32ccc#X\JJk	.
=52	=52	=52
8dL 8A 8D\	8dddL 8ff# 8dd\	.
8d 8A 8F#\	8dddJ 8aa 8dd\	.
8d 8A 8D\	8.aaL 8.dd\	.
8dJ 8A 8F#\	.	.
.	16ccc#X\Jk	.
=53	=53	=53
.	8qccc#X/	.
8dL 8G\	16bb\LL	.
.	32r	.
.	32aa#X\K	.
8d 8B\	16bb\	.
.	32r	.
.	32ccc#X\JJk	.
.	8qeee/	.
8d 8G\	16ddd\LL	.
.	32r	.
.	32ccc#\K	.
8c#J 8B\	16ddd\	.
.	32r	.
.	32eee\JJk	.
!!LO:LB:g=original
=54	=54	=54
8f#L 8c# 8F#\	8fff#L 8aa#X 8ff#\	.
8f# 8c# 8A#X\	8fff#J 8ccc# 8ff#\	.
8f# 8c# 8F#\	8.ccc#^^>L 8.ff#\	.
8f#J 8c# 8A#\	.	.
.	16eee\Jk	.
=55	=55	=55
8f#L 8d 8B\	16ddd\LL	.
.	32r	.
.	32eee\K	.
8f# 8d 8B\	16ddd\	.
.	32r	.
.	32ccc#\JJk	.
8g 8d 8G\	16bb\LL	.
.	32r	.
.	32ccc#\K	.
8gJ 8d 8G\	16bb\	.
.	32r	.
.	32aa\JJk	.
=56	=56	=56
8E\L	16gg\LL	.
.	32r	.
.	32aa\K	.
8gJ 8c# 8B\	16gg\	.
.	32r	.
.	32ff#\JJk	.
8F#\L	16ee\LL	.
.	32r	.
.	32dd\K	.
8f#J 8c# 8A#X\	16cc#\	.
.	32r	.
.	32ff#\JJk	.
!!LO:LB:g=original
=57	=57	=57
*	*^	*
8B'> 8BB'\	8b\	4.ryy	.
.	8qee/	.	.
4d^^> 4B\	(>16dd\L	.	.
.	16cc#\	.	.
.	16dd\	.	.
.	16b\J)	.	.
!	!LO:TX:a:t=P:problem:cross-measure beam:problem	!	!
8e 8c# 8F#\	8ff#^>/	(>16a#X\LL	.
.	.	16cc#\JJ	.
=58	=58	=58	=58
8B'> 8BB'\	8dd/	8b\)	.
.	8qee/	.	.
4d^^> 4B\	(>16dd\LL	4rcyy	.
.	16cc#\	.	.
.	16dd\	.	.
.	16b\JJ)	.	.
!	!LO:TX:a:t=P:problem:cross-measure beam:problem	!LO:TX:b:t=P:problem:cross-measure beam:problem	!
8e 8c# 8F#\	8ff#^>/	(>16a#X\LL	.
.	.	16cc#\JJ	.
=59	=59	=59	=59
8B 8BB\	8dd/	8b\)	.
.	8qgg/	.	.
4d^^> 4B\	(>16ff#\LL	4ryy	.
.	16ee\	.	.
.	16ff#\	.	.
.	16dd\JJ)	.	.
!	!LO:TX:a:t=P:problem:cross-measure beam:problem	!LO:TX:b:t=P:problem:cross-measure beam:problem	!
8f# 8c# 8F#\	8aa#X/	(>16cc#\LL	.
.	.	16ee\JJ	.
=60	=60	=60	=60
8B'> 8BB'\	8bb/	8dd\)	.
.	8qgg/	.	.
4d^^> 4B\	(>16ff#\LL	4ryy	.
.	16ee\	.	.
.	16ff#\	.	.
.	16dd\JJ)	.	.
!	!LO:TX:a:t=P:problem:cross-measure beam:problem	!	!
8f# 8c# 8F#\	8aa#X^>/	16cc#\LL	.
.	.	16ee\JJ	.
*	*v	*v	*
!!LO:LB:g=original
=61	=61	=61
*	*	*^
8f# 8B\	8bb 8dd\	.	.
16r	16r	.	.
!	!	!	!LO:HP:b=2
(>64f#\LLLL	(>64fff#\LLLL	>	>
64e\	64eee\	.	.
64d\	64ddd\	.	.
64c#\JJJJ)	64ccc#\JJJJ)	.	.
8B\	8bb\	]	]
16r	16r	.	.
!	!	!	!LO:HP:b=2
(>64f#\LLLL	(>64fff#\LLLL	>	>
64e\	64eee\	.	.
64d\	64ddd\	.	.
64c#\JJJJ)	64ccc#\JJJJ)	]	]
*	*	*v	*v
=62	=62	=62
8B\	8bb\	.
8r	8r	.
*8va	*8va	*
8qa#X/	(<8qaaa#X 8qaa#X/	.
8b\	8bbb\ 8bb\)	.
*X8va	*X8va	*
8r	8r	.
=63	=63	=63
2BB;> 2BBB/	2B^<;>/	.
==	==	==
*-	*-	*-
!!!system-decoration: [(s1,s2)]
!!!RDF**kern: > = above
!!!RDF**kern: < = below
!!!ENC: Berenika Jozajtis
!!!END: 2021-04-01
!!!EED: Antoni Szymański
!!!EST: 2021-04-19
